X:1
T:I Waited Patiently for God
T:Tune: Joseph Parry, 1870 Text under copyright; for copyrighted material see Psalter Hymnal 40
T:LMD MERTHYR TYDFIL www.hymnary.org/text/i_waited_patiently_for_god_he_turned_to
T:This music is in the public domain. You may freely use this score for personal and congregational worship. If you reproduce the score, please credit Hymnary.org as the source. 
T:I Waited Patiently for God
T:This music is in the public domain. You may freely use this score for personal and congregational worship. If you reproduce the score, please credit Hymnary.org as the source. 
Z:This music is in the public domain. You may freely use this score for personal and congregational worship. If you reproduce the score, please credit Hymnary.org as the source.
%%score ( 1 2 ) ( 3 4 )
L:1/8
M:3/4
K:Bb
V:1 treble nm="SOPRANO ALTO" snm="S. A."
V:2 treble 
V:3 bass nm="TENOR BASS" snm="T. B."
V:4 bass 
V:1
 D2 G2 ^F2 | G4 D2 | F4 C2 | D6 | G2 A2 B2 | A4 D2 | D4 =E2 | D6 | D2 G2 ^F2 | G4 D2 | F4 C2 | D6 | %12
 G2 A2 B2 | A4 G2 | G4 ^F2 | G6 | G2 A2 B2 | c4 c2 | (B>A G2) B2 |1 A6 | D2 d2 c2 | B4 A2 | %22
 (G2 c2) B2 | A6 | D2 G2 ^F2 | G4 D2 || F4 C2 | D6 | G2 A2 B2 | A4 G2 | G4 ^F2 | G6 |] %32
V:2
 D2 G2 ^F2 | G4 B,2 | B,4 A,2 | B,6 | G2 A2 B2 | A4 D2 | D4 ^C2 | D6 | B,2 D2 D2 | D4 B,2 | C4 C2 | %11
 A,6 | D2 D2 D2 | E4 D2 | D4 D2 | D6 | D2 D2 D2 | E4 D2 | D4 =E2 |1 ^F6 | D2 G2 ^F2 | G4 ^F2 | %22
 (G2 ^F2) G2 | ^F6 | D2 G2 ^F2 | G4 B,2 || B,4 A,2 | B,6 | B,2 E2 D2 | (D3 C) B,C | D4 DC | B,6 |] %32
V:3
 D,2 G,2 ^F,2 | G,4 G,2 | D,4 F,2 | F,6 | G,2 A,2 B,2 | A,4 F,2 | A,4 G,2 | F,6 | G,2 G,2 C2 | %9
 B,4 G,2 | F,4 G,2 | ^F,6 | G,2 ^F,2 G,2 | (G,2 ^F,2) G,A, | B,4 A,2 | B,6 | G,2 ^F,2 G,B, | %17
 A,4 A,2 | (B,>C D2) ^C2 |1 D6 | D2 D2 D2 | D4 E2 | D4 D2 | D6 | D,2 G,2 ^F,2 | G,4 G,2 || %26
 D,4 F,2 | F,6 | G,2 ^F,2 G,2 | (G,2 ^F,2) G,A, | B,4 A,2 | G,6 |] %32
V:4
 D,2 G,2 ^F,2 | G,4 G,,2 | F,,4 F,,2 | B,,6 | G,2 A,2 B,2 | A,4 D,2 | A,,4 A,,2 | D,6 | %8
 G,,2 B,,2 A,,2 | G,,4 B,,2 | A,,4 E,2 | D,6 | B,,2 D,2 G,2 | E,4 B,,C, | D,4 D,2 | G,,6 | %16
 B,,2 D,2 G,2 | G,4 ^F,2 | (G,>A, B,2) G,2 |1 D,6 | D,2 B,2 A,2 | G,4 C2 | (B,2 A,2) G,2 | D,6 | %24
 D,2 G,2 ^F,2 | G,4 G,,2 || F,,4 F,,2 | B,,6 | E,2 C,2 B,,2 | D,4 E,2 | D,4 D,2 | G,,6 |] %32

